!!!!SEGMENT: pl-wtm--r-660-m--001-005_moniuszko-stanislaw--loteryja-no-4-piesn.krn
!!!cenid: 18xx:3020
!!!COM: Moniuszko, Stanisław
!!!COM-rismID: pe30008351
!!!CDT: 1819/05/05-1872/06/04
!!!CNT: Polish
!!!OPR: Loteryja
!!!OTL: No. 4 - Pieśń
!!!OMV: 005
!!!PDT: 1846
!!!AGN: Secular
!!!YEC: Copyright 2022 Narodowy Instytut Fryderyka Chopina (https://polishscores.org)
!!!YEM: License CC-BY-4.0 (https://creativecommons.org/licenses/by/4.0)
!!!SMS-siglum: PL-Wtm
!!!SMS-shelfmark: R 660/M
!!!SMS-shelfwork: 001-005 M
!!!SMS-variant:
!!!SMS-altvar:
!!!NIFC-rismSourceID: 1001090852
!!!NIFC-rismChildID: 1001090852
!!!NIFC-islandoraID:
!!!URL-pdf-islandora:
!!!URL-scan:
!!!IIIF:
!!!ONB-nifc: UWAGA: skany 0038-0042 (fragment na dole „Tromba za sceną” należy do No. 5)
!!!OMD: Grave.
!!!AIN: 1 cello 5 empty 1 fagot 1 flt 1 oboe 1 viola 1 violn
!!!key:
**kern	**dynam	**kern	**dynam	**kern	**text	**dynam	**kern	**dynam	**kern	**dynam	**kern	**dynam	**kern	**dynam	**kern	**dynam	**kern	**dynam	**kern	**dynam	**kern	**dynam
*part11	*	*part10	*	*part9	*	*	*part8	*	*part7	*	*part6	*	*part5	*	*part4	*	*part3	*	*part2	*	*part1	*
*staff11	*	*staff10	*	*staff9	*	*	*staff8	*	*staff7	*	*staff6	*	*staff5	*	*staff4	*	*staff3	*	*staff2	*	*staff1	*
*Iempty	*	*Icello	*	*Iempty	*	*	*Iviola	*	*Iempty	*	*Ivioln	*	*Iempty	*	*Ifagot	*	*Iempty	*	*Ioboe	*	*Iflt	*
*I"CBaſso.	*	*I"Vcello.	*	*I"Nieznajomy.	*	*	*I"Viola.	*	*I"V 2.	*	*I"Violino 1.	*	*I"in C. Corni.	*	*I"Fagotti.	*	*I"in C. Clarinetti.	*	*I"Oboi.	*	*I"Flauto.	*
*>[A,B,B1,B,B2]	*>[A,B,B1,B,B2]	*>[A,B,B1,B,B2]	*>[A,B,B1,B,B2]	*>[A,B,B1,B,B2]	*>[A,B,B1,B,B2]	*>[A,B,B1,B,B2]	*>[A,B,B1,B,B2]	*>[A,B,B1,B,B2]	*>[A,B,B1,B,B2]	*>[A,B,B1,B,B2]	*>[A,B,B1,B,B2]	*>[A,B,B1,B,B2]	*>[A,B,B1,B,B2]	*>[A,B,B1,B,B2]	*>[A,B,B1,B,B2]	*>[A,B,B1,B,B2]	*>[A,B,B1,B,B2]	*>[A,B,B1,B,B2]	*>[A,B,B1,B,B2]	*>[A,B,B1,B,B2]	*>[A,B,B1,B,B2]	*>[A,B,B1,B,B2]
*>A	*>A	*>A	*>A	*>A	*>A	*>A	*>A	*>A	*>A	*>A	*>A	*>A	*>A	*>A	*>A	*>A	*>A	*>A	*>A	*>A	*>A	*>A
*clefF4	*	*clefF4	*	*clefF4	*	*	*clefC3	*	*clefG2	*	*clefG2	*	*clefG2	*	*clefF4	*	*clefG2	*	*clefG2	*	*clefG2	*
*Trd0c0	*	*	*	*	*	*	*	*	*	*	*	*	*Trd0c0	*	*	*	*	*	*	*	*	*
*k[b-e-a-]	*	*k[b-e-a-]	*	*k[b-e-a-]	*	*	*k[b-e-a-]	*	*k[b-e-a-]	*	*k[b-e-a-]	*	*k[]	*	*k[b-e-a-]	*	*k[b-e-a-]	*	*k[b-e-a-]	*	*k[b-e-a-]	*
*c:	*	*c:	*	*c:	*	*	*c:	*	*c:	*	*c:	*	*c:	*	*c:	*	*c:	*	*c:	*	*c:	*
*M4/4	*	*M4/4	*	*M4/4	*	*	*M4/4	*	*M4/4	*	*M4/4	*	*M4/4	*	*M4/4	*	*M4/4	*	*M4/4	*	*M4/4	*
*met(c)	*	*met(c)	*	*met(c)	*	*	*met(c)	*	*met(c)	*	*met(c)	*	*met(c)	*	*met(c)	*	*met(c)	*	*met(c)	*	*met(c)	*
=1	=1	=1	=1	=1	=1	=1	=1	=1	=1	=1	=1	=1	=1	=1	=1	=1	=1	=1	=1	=1	=1	=1
*	*	*2\right	*	*	*	*	*	*	*	*	*	*	*clefF4	*	*	*	*	*	*	*	*	*
*	*	*	*	*	*	*	*	*	*	*	*	*	*^	*	*	*	*^	*	*	*	*	*
!	!LO:DY:rj	!	!	!	!	!	!	!LO:DY:rj	!	!	!	!	!	!	!LO:DY:rj	!	!	!	!	!LO:DY:rj	!	!	!LO:TX:t=P:problem=all\middle or right&colon; global	!
(2C/	ppp	(2G\	ppp	1r	.	.	(2E-/	ppp	1r	.	1r	.	(1C	(1CC	ppp	1r	.	([1c	[>1c	ppp	1r	.	1r	.
2FF/	.	2A-\	.	.	.	.	2F/	.	.	.	.	.	.	.	.	.	.	.	.	.	.	.	.	.
=2	=2	=2	=2	=2	=2	=2	=2	=2	=2	=2	=2	=2	=2	=2	=2	=2	=2	=2	=2	=2	=2	=2	=2	=2
*	*	*	*	*	*	*	*	*	*	*	*	*	*	*2\right	*	*	*	*	*2\right	*	*	*	*	*
!	!	!	!	!	!	!	!	!	!	!	!	!	!	!	!	!	!	!LO:TX:t=P:problem=2\right&colon; global	!	!	!	!	!	!
2.GG/)	.	2.G\)	.	2.r	.	.	2.D/)	.	1r;	.	1r;	.	1r;	2.GG\))	.	1ryy	.	2c/]	2c\]	.	1r;	.	1r;	.
.	.	.	.	.	.	.	.	.	.	.	.	.	.	.	.	.	.	4Bn/)	4Bn\	.	.	.	.	.
4r;	.	4r;	.	[4G;\	Cios	.	4r	.	.	.	.	.	.	4r;>	.	.	.	4r;	4ryy	.	.	.	.	.
*	*	*	*	*	*	*	*	*	*	*	*	*	*v	*v	*	*	*	*v	*v	*	*	*	*	*
=3!|:	=3!|:	=3!|:	=3!|:	=3!|:	=3!|:	=3!|:	=3!|:	=3!|:	=3!|:	=3!|:	=3!|:	=3!|:	=3!|:	=3!|:	=3!|:	=3!|:	=3!|:	=3!|:	=3!|:	=3!|:	=3!|:	=3!|:
!!!OMD: Andante.
*>B	*>B	*>B	*>B	*>B	*>B	*>B	*>B	*>B	*>B	*>B	*>B	*>B	*>B	*>B	*>B	*>B	*>B	*>B	*>B	*>B	*>B	*>B
*	*	*	*	*	*	*	*	*	*	*	*	*	*	*	*^	*	*	*	*	*	*	*
*	*	*	*	*	*	*	*	*	*	*	*Xtuplet	*	*	*	*	*	*	*	*	*	*	*	*
8C/	.	8C/	.	4G\]	.	.	4r	.	4r	.	12r	p	1r	.	(2E-/	(1C	pp	1r	.	1r	.	1r	.
.	.	.	.	.	.	.	.	.	.	.	12c/L	.	.	.	.	.	.	.	.	.	.	.	.
8r	.	8r	.	.	.	.	.	.	.	.	.	.	.	.	.	.	.	.	.	.	.	.	.
.	.	.	.	.	.	.	.	p	.	p	12e-/J	.	.	.	.	.	.	.	.	.	.	.	.
4r	.	4r	.	8.G\	w du-	.	8c\	.	8e- 8G/	.	(12g/L	.	.	.	.	.	.	.	.	.	.	.	.
.	.	.	.	.	.	.	.	.	.	.	12e-/)	.	.	.	.	.	.	.	.	.	.	.	.
.	.	.	.	.	.	.	8r	.	8r	.	.	.	.	.	.	.	.	.	.	.	.	.	.
.	.	.	.	.	.	.	.	.	.	.	12c/J	.	.	.	.	.	.	.	.	.	.	.	.
.	.	.	.	16G\	-szę	.	.	.	.	.	.	.	.	.	.	.	.	.	.	.	.	.	.
8FF/	.	8FF/	.	4.A-\	mo-	.	4r	.	4r	.	12r	.	.	.	2F/	.	.	.	.	.	.	.	.
.	.	.	.	.	.	.	.	.	.	.	12c/L	.	.	.	.	.	.	.	.	.	.	.	.
8r	.	8r	.	.	.	.	.	.	.	.	.	.	.	.	.	.	.	.	.	.	.	.	.
.	.	.	.	.	.	.	.	.	.	.	12f/J	.	.	.	.	.	.	.	.	.	.	.	.
4r	.	4r	.	.	.	.	8c\	.	8f 8A-/	.	(12a-/L	.	.	.	.	.	.	.	.	.	.	.	.
.	.	.	.	.	.	.	.	.	.	.	12f/)	.	.	.	.	.	.	.	.	.	.	.	.
.	.	.	.	8A-\	-ją	.	8r	.	8r	.	.	.	.	.	.	.	.	.	.	.	.	.	.
.	.	.	.	.	.	.	.	.	.	.	12c/J	.	.	.	.	.	.	.	.	.	.	.	.
=4	=4	=4	=4	=4	=4	=4	=4	=4	=4	=4	=4	=4	=4	=4	=4	=4	=4	=4	=4	=4	=4	=4	=4
*	*	*	*	*	*	*	*	*	*	*	*	*	*	*	*	*2\right	*	*	*	*	*	*	*
!	!	!	!	!	!	!LO:DY:a	!	!	!	!	!	!	!	!	!	!	!	!	!	!	!	!	!
8GG/	.	8GG/	.	8.G\L	bi-	>	4r	.	4r	.	12r	.	1r	.	4D/	2BBn\	.	1r	.	1r	.	1r	.
.	.	.	.	.	.	.	.	.	.	.	12G/L	.	.	.	.	.	.	.	.	.	.	.	.
8r	.	8r	.	.	.	.	.	.	.	.	.	.	.	.	.	.	.	.	.	.	.	.	.
.	.	.	.	.	.	.	.	.	.	.	12d/J	.	.	.	.	.	.	.	.	.	.	.	.
.	.	.	.	16F\Jk	.	.	.	.	.	.	.	.	.	.	.	.	.	.	.	.	.	.	.
4r	.	4r	.	8.E-\	-je	.	8d 8G/	.	8d 8G/	.	(12g/L	.	.	.	2.G/)	.	.	.	.	.	.	.	.
.	.	.	.	.	.	.	.	.	.	.	12d/)	.	.	.	.	.	.	.	.	.	.	.	.
.	.	.	.	.	.	]	8r	.	8r	.	.	.	.	.	.	.	.	.	.	.	.	.	.
.	.	.	.	.	.	.	.	.	.	.	12G/J	.	.	.	.	.	.	.	.	.	.	.	.
.	.	.	.	16D\	za	.	.	.	.	.	.	.	.	.	.	.	.	.	.	.	.	.	.
8C/	.	8C/	.	4F\	cio-	.	4r	.	4r	.	12r	.	.	.	.	2C\)	.	.	.	.	.	.	.
.	.	.	.	.	.	.	.	.	.	.	12c/L	.	.	.	.	.	.	.	.	.	.	.	.
8r	.	8r	.	.	.	.	.	.	.	.	.	.	.	.	.	.	.	.	.	.	.	.	.
.	.	.	.	.	.	.	.	.	.	.	12e-/J	.	.	.	.	.	.	.	.	.	.	.	.
4r	.	4r	.	8E-\	-sem.	.	8c/	.	8e- 8G/	.	(12g/L	.	.	.	.	.	.	.	.	.	.	.	.
.	.	.	.	.	.	.	.	.	.	.	12e-/)	.	.	.	.	.	.	.	.	.	.	.	.
.	.	.	.	8r	.	.	8r	.	8r	.	.	.	.	.	.	.	.	.	.	.	.	.	.
.	.	.	.	.	.	.	.	.	.	.	12c/J	.	.	.	.	.	.	.	.	.	.	.	.
!!LO:PB:g=original
=5	=5	=5	=5	=5	=5	=5	=5	=5	=5	=5	=5	=5	=5	=5	=5	=5	=5	=5	=5	=5	=5	=5	=5
8AA-/	.	8AA-/	.	4E-\	o-	.	4r	.	4r	.	12r	.	1r	.	(2A-/	2C\	.	1ryy	.	1ryy	.	1ryy	.
.	.	.	.	.	.	.	.	.	.	.	12c/L	.	.	.	.	.	.	.	.	.	.	.	.
8r	.	8r	.	.	.	.	.	.	.	.	.	.	.	.	.	.	.	.	.	.	.	.	.
.	.	.	.	.	.	.	.	.	.	.	12e-/J	.	.	.	.	.	.	.	.	.	.	.	.
4r	.	4r	.	8.F\	-ni	.	8c\	.	8e- 8A-/	.	(12a-/L	.	.	.	.	.	.	.	.	.	.	.	.
.	.	.	.	.	.	.	.	.	.	.	12e-/)	.	.	.	.	.	.	.	.	.	.	.	.
.	.	.	.	.	.	.	8r	.	8r	.	.	.	.	.	.	.	.	.	.	.	.	.	.
.	.	.	.	.	.	.	.	.	.	.	12c/J	.	.	.	.	.	.	.	.	.	.	.	.
.	.	.	.	16E-\	nie	.	.	.	.	.	.	.	.	.	.	.	.	.	.	.	.	.	.
8E-\	.	8E-\	.	4.G\	ży-	.	4r	.	4r	.	12r	.	.	.	4G/	2E-\	.	.	.	.	.	.	.
.	.	.	.	.	.	.	.	.	.	.	12B-/L	.	.	.	.	.	.	.	.	.	.	.	.
8r	.	8r	.	.	.	.	.	.	.	.	.	.	.	.	.	.	.	.	.	.	.	.	.
.	.	.	.	.	.	.	.	.	.	.	12e-/J	.	.	.	.	.	.	.	.	.	.	.	.
4r	.	4r	.	.	.	.	8B- 8E-/	.	8e- 8G/	.	(12g/L	.	.	.	4B-/)	.	.	.	.	.	.	.	.
.	.	.	.	.	.	.	.	.	.	.	12e-/)	.	.	.	.	.	.	.	.	.	.	.	.
.	.	.	.	8G\	-ją,	.	8r	.	8r	.	.	.	.	.	.	.	.	.	.	.	.	.	.
.	.	.	.	.	.	.	.	.	.	.	12B-/J	.	.	.	.	.	.	.	.	.	.	.	.
=6	=6	=6	=6	=6	=6	=6	=6	=6	=6	=6	=6	=6	=6	=6	=6	=6	=6	=6	=6	=6	=6	=6	=6
8D\	.	(4D/	.	4G\	o-	.	8G/	.	8f/	.	(12Bn/L	.	1r	.	(4Bn/	4D\	.	1ryy	.	1ryy	.	1ryy	.
.	.	.	.	.	.	.	.	.	.	.	12d/	.	.	.	.	.	.	.	.	.	.	.	.
8r	.	.	.	.	.	.	8r	.	8r	.	.	.	.	.	.	.	.	.	.	.	.	.	.
.	.	.	.	.	.	.	.	.	.	.	12g/J)	.	.	.	.	.	.	.	.	.	.	.	.
8C\	.	4C/	.	8.c\	-na	.	8G/	.	8e-/	.	(12c/L	.	.	.	4c/	4E-\	.	.	.	.	.	.	.
.	.	.	.	.	.	.	.	.	.	.	12e-/	.	.	.	.	.	.	.	.	.	.	.	.
8r	.	.	.	.	.	.	8ryy	.	8r	.	.	.	.	.	.	.	.	.	.	.	.	.	.
.	.	.	.	.	.	.	.	.	.	.	12g/J)	.	.	.	.	.	.	.	.	.	.	.	.
.	.	.	.	16c\	w mo-	.	.	.	.	.	.	.	.	.	.	.	.	.	.	.	.	.	.
8GG/	.	8GG/)	.	4c\	-gi-	.	4G/	.	(4c/	.	(12e-/L	.	.	.	4e-/	4.G\	.	.	.	.	.	.	.
.	.	.	.	.	.	.	.	.	.	.	12c/	.	.	.	.	.	.	.	.	.	.	.	.
8r	.	8r	.	.	.	.	.	.	.	.	.	.	.	.	.	.	.	.	.	.	.	.	.
.	.	.	.	.	.	.	.	.	.	.	12G/J	.	.	.	.	.	.	.	.	.	.	.	.
4r	.	4r	.	8Bn\	-le,	.	8d 8G/	.	8Bn/)	.	12Bn/L	.	.	.	8d/)	.	.	.	.	.	.	.	.
.	.	.	.	.	.	.	.	.	.	.	12d/	.	.	.	.	.	.	.	.	.	.	.	.
.	.	.	.	8r	.	.	8r	.	8r	.	.	.	.	.	8r	8ryy	.	.	.	.	.	.	.
.	.	.	.	.	.	.	.	.	.	.	12g/J)	.	.	.	.	.	.	.	.	.	.	.	.
*	*	*	*	*	*	*	*	*	*	*	*	*	*	*	*v	*v	*	*	*	*	*	*	*
=7	=7	=7	=7	=7	=7	=7	=7	=7	=7	=7	=7	=7	=7	=7	=7	=7	=7	=7	=7	=7	=7	=7
!	!	!	!	!	!	!	!	!	!	!	!	!	!LO:CL:ed	!	!	!	!	!	!	!	!	!
*	*	*	*	*	*	*	*	*	*	*	*	*	*clefG2	*	*	*	*	*	*	*	*	*
*	*	*	*	*	*	*	*	*	*	*	*	*	*^	*	*	*	*	*	*	*	*	*
!	!	!LO:TX:t=P:problem=t. 9-12 – brak odnośnika do cb	!	!	!	!	!	!	!	!	!	!	!	!	!	!	!	!	!	!	!	!	!
8AA-/	.	8AA-/yy	.	4c\	lecz	.	4r	.	4r	.	12r	.	(2ee-X/	2cc\	.	1r	.	1ryy	.	1ryy	.	1ryy	.
.	.	.	.	.	.	.	.	.	.	.	12c/L	.	.	.	.	.	.	.	.	.	.	.	.
8r	.	8ryy	.	.	.	.	.	.	.	.	.	.	.	.	.	.	.	.	.	.	.	.	.
.	.	.	.	.	.	.	.	.	.	.	12e-/J	.	.	.	.	.	.	.	.	.	.	.	.
4r	.	4ryy	.	8.B-\	i	.	8c\	.	8e-/	.	(12b-/L	.	.	.	.	.	.	.	.	.	.	.	.
.	.	.	.	.	.	.	.	.	.	.	12e-/)	.	.	.	.	.	.	.	.	.	.	.	.
.	.	.	.	.	.	.	8r	.	8r	.	.	.	.	.	.	.	.	.	.	.	.	.	.
.	.	.	.	.	.	.	.	.	.	.	12a-/J	.	.	.	.	.	.	.	.	.	.	.	.
.	.	.	.	16A-\	w tej	.	.	.	.	.	.	.	.	.	.	.	.	.	.	.	.	.	.
8En\	.	8En\yy	.	4.G\	wal-	.	4r	.	4r	.	12r	.	2dd-X/)	2b-X\	.	.	.	.	.	.	.	.	.
.	.	.	.	.	.	.	.	.	.	.	12B-/L	.	.	.	.	.	.	.	.	.	.	.	.
8r	.	8ryy	.	.	.	.	.	.	.	.	.	.	.	.	.	.	.	.	.	.	.	.	.
.	.	.	.	.	.	.	.	.	.	.	12d-X/J	.	.	.	.	.	.	.	.	.	.	.	.
4r	.	4ryy	.	.	.	.	8B-/	.	8d-X/	.	12g/L	.	.	.	.	.	.	.	.	.	.	.	.
.	.	.	.	.	.	.	.	.	.	.	12d-/	.	.	.	.	.	.	.	.	.	.	.	.
.	.	.	.	8G\	-ce	.	8r	.	8r	.	.	.	.	.	.	.	.	.	.	.	.	.	.
.	.	.	.	.	.	.	.	.	.	.	12B-/J	.	.	.	.	.	.	.	.	.	.	.	.
=8	=8	=8	=8	=8	=8	=8	=8	=8	=8	=8	=8	=8	=8	=8	=8	=8	=8	=8	=8	=8	=8	=8	=8
(4F/	<	(4F/	<	4A-\	z prze-	.	4A-/	.	4c/	<	(12A-/L	.	(4cc/	4cc\	<	1r	.	1r	.	1r	.	1r	.
.	.	.	.	.	.	.	.	.	.	.	12c/)	.	.	.	.	.	.	.	.	.	.	.	.
.	.	.	.	.	.	.	.	.	.	.	12f/J	.	.	.	.	.	.	.	.	.	.	.	.
4BBn/	[	4BBn/	[	8.G\	-ciw-	.	4G/	.	8.g/L	[	(12G/L	.	4dd/	4g\	[	.	.	.	.	.	.	.	.
.	.	.	.	.	.	.	.	.	.	.	12d/)	.	.	.	>	.	.	.	.	.	.	.	.
.	>	.	>	.	.	.	.	.	.	.	12g/J	.	.	.	.	.	.	.	.	.	.	.	.
.	.	.	.	16D\	-nym	.	.	.	16d/Jk	>	.	.	.	.	.	.	.	.	.	.	.	.	.
8C/)	.	8C/)	]	4F\	lo-	.	(4d/	.	(4f/	.	12r	.	8cc/)	8cc\	.	.	.	.	.	.	.	.	.
.	]	.	.	.	.	.	.	.	.	.	12c/L	.	.	.	]	.	.	.	.	.	.	.	.
8r	.	8ryy	.	.	.	.	.	.	.	.	.	.	8r	8ryy	.	.	.	.	.	.	.	.	.
.	.	.	.	.	.	.	.	.	.	]	12e-/J	.	.	.	.	.	.	.	.	.	.	.	.
4r	.	4ryy	.	8E-\	-sem	.	8c/)	.	8e- 8G/)	.	(12g/L	.	4r	4ryy	.	.	.	.	.	.	.	.	.
.	.	.	.	.	.	.	.	.	.	.	12e-/)	.	.	.	.	.	.	.	.	.	.	.	.
.	.	.	.	8r	.	.	8r	.	8r	.	.	.	.	.	.	.	.	.	.	.	.	.	.
.	.	.	.	.	.	.	.	.	.	.	12c/J	.	.	.	.	.	.	.	.	.	.	.	.
*	*	*	*	*	*	*	*	*	*	*	*	*	*v	*v	*	*	*	*	*	*	*	*	*
!!LO:PB:g=original
=9	=9	=9	=9	=9	=9	=9	=9	=9	=9	=9	=9	=9	=9	=9	=9	=9	=9	=9	=9	=9	=9	=9
!	!	!LO:TX:t=P:problem=t. 9-12 – brak odnośnika do cb	!	!	!	!	!	!	!	!	!	!	!	!	!	!	!	!	!	!	!	!
4C/	.	4C/yy	.	4D\	choć	.	4A-/	.	4d/	.	(12f#X/L	.	1r	.	(4d 4F#X\	.	1r	.	1r	.	1r	.
.	.	.	.	.	.	.	.	.	.	.	12d/)	.	.	.	.	.	.	.	.	.	.	.
.	.	.	.	.	.	.	.	.	.	.	12f#/J	.	.	.	.	.	.	.	.	.	.	.
4C/	.	4C/yy	.	8E-\	du-	.	4G/	.	4e-/	.	(12g/L	.	.	.	4e- 4G\	.	.	.	.	.	.	.
.	.	.	.	.	.	.	.	.	.	.	12e-/)	.	.	.	.	.	.	.	.	.	.	.
.	.	.	.	8E-\	-szę	.	.	.	.	.	.	.	.	.	.	.	.	.	.	.	.	.
.	.	.	.	.	.	.	.	.	.	.	12G/J	.	.	.	.	.	.	.	.	.	.	.
8C/	.	8C/yy	.	4C/	szar-	.	8F/	.	8c/	.	12r	.	.	.	4c 4E-\)	.	.	.	.	.	.	.
.	.	.	.	.	.	.	.	.	.	.	12G/L	.	.	.	.	.	.	.	.	.	.	.
8r	.	8ryy	.	.	.	.	8r	.	8r	.	.	.	.	.	.	.	.	.	.	.	.	.
.	.	.	.	.	.	.	.	.	.	.	12c/J	.	.	.	.	.	.	.	.	.	.	.
4r	.	4ryy	.	8E-/	-pią	.	8c/	.	8e- 8G/	.	12e-/L	.	.	.	4r	.	.	.	.	.	.	.
.	.	.	.	.	.	.	.	.	.	.	12c/	.	.	.	.	.	.	.	.	.	.	.
.	.	.	.	8C/	roz-	.	8r	.	8r	.	.	.	.	.	.	.	.	.	.	.	.	.
.	.	.	.	.	.	.	.	.	.	.	12G/J	.	.	.	.	.	.	.	.	.	.	.
=10	=10	=10	=10	=10	=10	=10	=10	=10	=10	=10	=10	=10	=10	=10	=10	=10	=10	=10	=10	=10	=10	=10
8C/	.	8C/yy	.	(4G\	-pa-	.	4r	.	(4g/	>	12r	.	(4gg 4ee-X\	>	1r	.	1r	.	1r	.	1r	.
.	.	.	.	.	.	.	.	.	.	.	12c/L	.	.	.	.	.	.	.	.	.	.	.
8r	.	8ryy	.	.	.	.	.	.	.	.	.	.	.	.	.	.	.	.	.	.	.	.
.	.	.	.	.	.	.	.	.	.	.	12e-X/J	.	.	.	.	.	.	.	.	.	.	.
4r	.	4ryy	.	8.F\)	.	.	8g 8G\	.	8.f/L)	]	(12d/L	.	8.ffL 8.dd\	.	.	.	.	.	.	.	.	.
.	.	.	.	.	.	.	.	.	.	.	12G/)	.	.	]	.	.	.	.	.	.	.	.
.	.	.	.	.	.	.	8r	.	.	.	.	.	.	.	.	.	.	.	.	.	.	.
.	.	.	.	.	.	.	.	.	.	.	12c/J	.	.	.	.	.	.	.	.	.	.	.
.	.	.	.	16E-\	-czy	.	.	.	16e-/Jk	.	.	.	16ee-XJk 16cc\)	.	.	.	.	.	.	.	.	.
8GG/	.	8GG/yy	.	4E-\	bu-	.	4r	.	4e-/	.	12r	.	(4ee- (4cc\	.	.	.	.	.	.	.	.	.
.	.	.	.	.	.	.	.	.	.	.	12G/L	.	.	.	.	.	.	.	.	.	.	.
8r	.	8ryy	.	.	.	.	.	.	.	.	.	.	.	.	.	.	.	.	.	.	.	.
.	.	.	.	.	.	.	.	.	.	.	12g/J	.	.	.	.	.	.	.	.	.	.	.
4r	.	4ryy	.	8D\	-rze	.	8Bn/	.	8d 8G/	.	(12d/L	.	8dd) 8g\)	.	.	.	.	.	.	.	.	.
.	.	.	.	.	.	.	.	.	.	.	12Bn/)	.	.	.	.	.	.	.	.	.	.	.
.	.	.	.	8r	.	.	8r	.	8r	.	.	.	8r	.	.	.	.	.	.	.	.	.
.	.	.	.	.	.	.	.	.	.	.	12G/J	.	.	.	.	.	.	.	.	.	.	.
=11	=11	=11	=11	=11	=11	=11	=11	=11	=11	=11	=11	=11	=11	=11	=11	=11	=11	=11	=11	=11	=11	=11
*	*	*	*	*	*	*	*	*	*	*	*	*	*	*	*^	*	*^	*	*	*	*	*
8D\	.	8D\yy	.	4D\	mie-	.	4r	.	4r	.	12r	.	1r	.	(<2An/	2.D\	.	(2f#X/	(2c\	.	1r	.	1r	.
.	.	.	.	.	.	.	.	.	.	.	12An/L	.	.	.	.	.	.	.	.	.	.	.	.	.
8r	.	8ryy	.	.	.	.	.	.	.	.	.	.	.	.	.	.	.	.	.	.	.	.	.	.
.	.	.	.	.	.	.	.	.	.	.	12d/J	.	.	.	.	.	.	.	.	.	.	.	.	.
4r	.	4ryy	.	8.D\	-wam	.	8d\	.	8f#X 8An/	.	(12f#X/L	.	.	.	.	.	.	.	.	.	.	.	.	.
.	.	.	.	.	.	.	.	.	.	.	12d/)	.	.	.	.	.	.	.	.	.	.	.	.	.
.	.	.	.	.	.	.	8r	.	8r	.	.	.	.	.	.	.	.	.	.	.	.	.	.	.
.	.	.	.	.	.	.	.	.	.	.	12A/J	.	.	.	.	.	.	.	.	.	.	.	.	.
.	.	.	.	16D\	nie-	.	.	.	.	.	.	.	.	.	.	.	.	.	.	.	.	.	.	.
8G\	.	8G\yy	.	4.G\	-kie-	.	4r	.	4r	.	12r	.	.	.	4G/)	.	.	4g/)	4Bn\)	.	.	.	.	.
.	.	.	.	.	.	.	.	.	.	.	12Bn/L	.	.	.	.	.	.	.	.	.	.	.	.	.
8r	.	8ryy	.	.	.	.	.	.	.	.	.	.	.	.	.	.	.	.	.	.	.	.	.	.
.	.	.	.	.	.	.	.	.	.	.	12d/J	.	.	.	.	.	.	.	.	.	.	.	.	.
4r	.	4ryy	.	.	.	.	8d\	.	8g 8Bn/	.	(12g/L	.	.	.	4r	4ryy	.	4r	4ryy	.	.	.	.	.
.	.	.	.	.	.	.	.	.	.	.	12d/)	.	.	.	.	.	.	.	.	.	.	.	.	.
.	.	.	.	8D\	-dy	.	8r	.	8r	.	.	.	.	.	.	.	.	.	.	.	.	.	.	.
.	.	.	.	.	.	.	.	.	.	.	12B/J	.	.	.	.	.	.	.	.	.	.	.	.	.
*	*	*	*	*	*	*	*	*	*	*	*	*	*	*	*v	*v	*	*	*	*	*	*	*	*
*	*	*	*	*	*	*	*	*	*	*	*	*	*	*	*	*	*v	*v	*	*	*	*	*
=12	=12	=12	=12	=12	=12	=12	=12	=12	=12	=12	=12	=12	=12	=12	=12	=12	=12	=12	=12	=12	=12	=12
*	*	*	*	*	*	*	*	*	*	*	*	*	*^	*	*	*	*	*	*	*	*^	*
*	*	*	*	*	*	*	*	*	*	*	*	*	*	*	*	*	*	*	*	*	*	*	*2\right	*
8F#X\	.	8F#X\yy	.	4D\	po-	.	4r	.	4r	.	12r	.	2.dd/	1r	.	1r	.	1r	.	1r	.	(2cc/	(>2an\	.
.	.	.	.	.	.	.	.	.	.	.	12c/L	.	.	.	.	.	.	.	.	.	.	.	.	.
8r	.	8ryy	.	.	.	.	.	.	.	.	.	.	.	.	.	.	.	.	.	.	.	.	.	.
.	.	.	.	.	.	.	.	.	.	.	12d/J	.	.	.	.	.	.	.	.	.	.	.	.	.
!	!	!	!	!	!	!	!	!	!LO:SIC:v:n=1:s=8an	!	!	!	!	!	!	!	!	!	!	!	!	!	!	!
4r	.	4ryy	.	8.En\	-cie-	.	8d\	.	8a- 8d/	.	(12an/L	.	.	.	.	.	.	.	.	.	.	.	.	.
.	.	.	.	.	.	.	.	.	.	.	12d/)	.	.	.	.	.	.	.	.	.	.	.	.	.
.	.	.	.	.	.	.	8r	.	8r	.	.	.	.	.	.	.	.	.	.	.	.	.	.	.
.	.	.	.	.	.	.	.	.	.	.	12c/J	.	.	.	.	.	.	.	.	.	.	.	.	.
.	.	.	.	16D\	-chy	.	.	.	.	.	.	.	.	.	.	.	.	.	.	.	.	.	.	.
8G\	.	8G\yy	.	4D\	chwi-	.	4r	.	4r	.	12r	.	.	.	.	.	.	.	.	.	.	4bn/)	4g\)	.
.	.	.	.	.	.	.	.	.	.	.	12Bn/L	.	.	.	.	.	.	.	.	.	.	.	.	.
8r	.	8ryy	.	.	.	.	.	.	.	.	.	.	.	.	.	.	.	.	.	.	.	.	.	.
.	.	.	.	.	.	.	.	.	.	.	12d/J	.	.	.	.	.	.	.	.	.	.	.	.	.
4r	.	4ryy	.	8BBn\	-le	.	8d 8G\	.	8g 8Bn/	.	(12bn/L	.	4r	.	.	.	.	.	.	.	.	4r	4ryy	.
.	.	.	.	.	.	.	.	.	.	.	12g/)	.	.	.	.	.	.	.	.	.	.	.	.	.
.	.	.	.	8r	.	.	8r	.	8r	.	.	.	.	.	.	.	.	.	.	.	.	.	.	.
.	.	.	.	.	.	.	.	.	.	.	12d/J	.	.	.	.	.	.	.	.	.	.	.	.	.
*	*	*	*	*	*	*	*	*	*	*	*	*	*v	*v	*	*	*	*	*	*	*	*v	*v	*
!!LO:PB:g=original
=13	=13	=13	=13	=13	=13	=13	=13	=13	=13	=13	=13	=13	=13	=13	=13	=13	=13	=13	=13	=13	=13	=13
*	*	*	*	*	*	*	*	*	*	*	*	*	*	*	*^	*	*^	*	*	*	*	*
*	*	*	*	*Xtuplet	*	*	*	*	*	*	*	*	*	*	*	*	*	*	*	*	*	*	*	*
!	!	!LO:TX:t=P:problem=t. 13-15 zapisane odnośnikiem do cb	!	!	!	!	!	!	!	!	!	!	!	!	!	!	!	!	!	!	!	!	!	!
4d\	.	4d\yy	.	6.D\	te	.	4r	.	4r	.	12r	.	1r	.	(2An/	1r	.	(2f#X/	2.d\	.	1ryy	.	1ryy	.
.	.	.	.	.	.	.	.	.	.	.	12An/L	.	.	.	.	.	.	.	.	.	.	.	.	.
.	.	.	.	.	.	.	.	.	.	.	12d/J	.	.	.	.	.	.	.	.	.	.	.	.	.
4c\	.	4c\yy	.	6D\	chwi-	.	8d\	.	8f#X 8An/	.	(12f#X/L	.	.	.	.	.	.	.	.	.	.	.	.	.
.	.	.	.	.	.	.	.	.	.	.	12d/)	.	.	.	.	.	.	.	.	.	.	.	.	.
.	.	.	.	.	.	.	8r	.	8r	.	.	.	.	.	.	.	.	.	.	.	.	.	.	.
.	.	.	.	12D\	-le	.	.	.	.	.	12A/J	.	.	.	.	.	.	.	.	.	.	.	.	.
4Bn\	.	4Bn\yy	.	[6.G\	w któ-	.	4r	.	4r	.	12r	.	.	.	4Bn/)	.	.	4g/)	.	.	.	.	.	.
.	.	.	.	.	.	.	.	.	.	.	12Bn/L	.	.	.	.	.	.	.	.	.	.	.	.	.
.	.	.	.	.	.	.	.	.	.	.	12d/J	.	.	.	.	.	.	.	.	.	.	.	.	.
4G\	.	4G\yy	.	6G\]	.	.	8d 8G\	.	8g 8Bn/	.	(12g/L	.	.	.	4r	.	.	4r	4ryy	.	.	.	.	.
.	.	.	.	.	.	.	.	.	.	.	12d/)	.	.	.	.	.	.	.	.	.	.	.	.	.
.	.	.	.	.	.	.	8r	.	8r	.	.	.	.	.	.	.	.	.	.	.	.	.	.	.
.	.	.	.	12D\	-rych	.	.	.	.	.	12B/J	.	.	.	.	.	.	.	.	.	.	.	.	.
*	*	*	*	*	*	*	*	*	*	*	*	*	*	*	*v	*v	*	*	*	*	*	*	*	*
*	*	*	*	*	*	*	*	*	*	*	*	*	*	*	*	*	*v	*v	*	*	*	*	*
=14	=14	=14	=14	=14	=14	=14	=14	=14	=14	=14	=14	=14	=14	=14	=14	=14	=14	=14	=14	=14	=14	=14
(2D/	.	(y2D/yy	.	12D\L	so-	.	2An/	.	2c/	.	12r	.	2r	.	1ryy	.	1ryy	.	1r	.	1ryy	.
.	.	.	.	12C#X\	.	.	.	.	.	.	12An/L	.	.	.	.	.	.	.	.	.	.	.
.	.	.	.	12D\J	.	.	.	.	.	.	12c/J	.	.	.	.	.	.	.	.	.	.	.
.	.	.	.	12F#X\L	-bie	.	.	.	.	.	12f#X/L	.	.	.	.	.	.	.	.	.	.	.
.	.	.	.	12En\J	.	.	.	.	.	.	12d/	.	.	.	.	.	.	.	.	.	.	.
.	.	.	.	12D\	po-	.	.	.	.	.	12A/J	.	.	.	.	.	.	.	.	.	.	.
*	*	*	*	*2\right	*	*	*	*	*	*	*	*	*	*	*	*	*	*	*	*	*	*
!	!	!	!	!	!	!	!LO:TUP:b	!	!LO:TUP:b	!	!	!	!	!LO:DY:rj	!	!	!	!	!	!	!	!
4GG/)	.	4GG/)yy	.	[2G\	-wtó-	.	12G/L	.	12Bn/L	.	(12g/L	.	[2gg [>2g\	p	.	.	.	.	.	.	.	.
.	.	.	.	.	.	.	12G/	.	12B/	.	12d/)	.	.	.	.	.	.	.	.	.	.	.
.	.	.	.	.	.	.	12G/J	.	12B/J	.	12G/J	.	.	<	.	.	.	.	.	.	.	.
*	*	*	*	*	*	*	*Xtuplet	*	*Xtuplet	*	*	*	*	*	*	*	*	*	*	*	*	*
4GG/	.	4GG/yy	.	.	.	.	12A/L	.	12c/L	.	(12g/L	.	.	.	.	.	.	.	.	.	.	.
.	.	.	.	.	.	.	12A/	.	12c/	<	12G/)	.	.	.	.	.	.	.	.	.	.	.
.	.	.	.	.	.	.	12A/J	.	12c/J	.	[12g/J	.	.	.	.	.	.	.	.	.	.	.
=15	=15	=15	=15	=15	=15	=15	=15	=15	=15	=15	=15	=15	=15	=15	=15	=15	=15	=15	=15	=15	=15	=15
*	*	*	*	*	*	*	*tremolo	*	*tremolo	*	*	*	*	*	*	*	*	*	*	*	*	*
!	!	!	!	!	!	!LO:DY:a	!	!	!	!	!	!	!	!	!	!	!	!	!	!	!	!
4GG/	.	4GG/yy	.	2.G\]	.	<	12Bn/L	.	12d/L	.	(12g/L]	.	4gg] 4g\]	.	1ryy	.	1ryy	.	1ryy	.	1ryy	.
.	.	.	.	.	.	.	12B/	.	12d/	.	12G/)	.	.	.	.	.	.	.	.	.	.	.
.	.	.	.	.	.	.	12B/J	.	12d/J	.	[12g/J	.	.	.	.	.	.	.	.	.	.	.
4GG/	.	4GG/yy	.	.	.	.	12c/L	.	12en/L	.	(12g/L]	.	4gg 4g\	.	.	.	.	.	.	.	.	.
.	.	.	.	.	.	.	12c/	.	12e/	.	12G/)	.	.	.	.	.	.	.	.	.	.	.
.	.	.	.	.	.	.	12c/J	.	12e/J	.	[12g/J	.	.	.	.	.	.	.	.	.	.	.
4GG/	.	4GG/yy	.	.	.	.	12d/L	.	12f/L	.	(12g/L]	.	4gg 4g\	.	.	.	.	.	.	.	.	.
.	.	.	.	.	.	.	12d/	.	12f/	.	12G/)	.	.	.	.	.	.	.	.	.	.	.
.	.	.	.	.	.	.	12d/J	.	12f/J	.	[12g/J	.	.	.	.	.	.	.	.	.	.	.
4GG/	.	4GG/yy	.	4G\	-rzę:	[	12B/L	.	12fL 12d/	[	(12g/L]	.	4gg 4g\	[	.	.	.	.	.	.	.	.
.	.	.	.	.	.	.	12B/	.	12f 12d/	.	12G/)	.	.	.	.	.	.	.	.	.	.	.
.	.	.	.	.	.	.	12B/J	.	12fJ 12d/	.	12g/J	.	.	.	.	.	.	.	.	.	.	.
*	*	*	*	*	*	*	*Xtremolo	*	*Xtremolo	*	*	*	*	*	*	*	*	*	*	*	*	*
=16||	=16||	=16||	=16||	=16||	=16||	=16||	=16||	=16||	=16||	=16||	=16||	=16||	=16||	=16||	=16||	=16||	=16||	=16||	=16||	=16||	=16||	=16||
*k[]	*	*k[]	*	*k[]	*	*	*k[]	*	*k[]	*	*k[]	*	*k[]	*	*k[]	*	*k[]	*	*k[]	*	*k[]	*
*	*	*	*	*	*	*	*	*	*	*	*	*	*^	*	*^	*	*^	*	*^	*	*	*
!	!	!	!	!LO:TX:a:i:t=Con anima.	!	!	!	!	!	!	!	!	!	!	!LO:DY:rj	!	!	!LO:DY:rj	!	!	!	!	!	!LO:DY:rj	!	!LO:DY:rj
2C/	.	(4G\	.	4G\	ach!	.	4..E/	.	12G/L	.	12gL 12G/	.	(2ee/	2cc\	p	(2E/	2C\	p	(<4g/	1r	p	4..e/	1r	p	(4gg\	p
.	.	.	.	.	.	.	.	.	12c/	.	(12e/	.	.	.	.	.	.	.	.	.	.	.	.	.	.	.
.	.	.	.	.	.	.	.	.	[12g/J	.	12g/J	.	.	.	.	.	.	.	.	.	.	.	.	.	.	.
.	.	8.c\L	.	8.c\	mi-	.	.	.	12g/L]	.	12cc/L	.	.	.	.	.	.	.	8.cc/L	.	.	.	.	.	8.ccc\L	.
.	.	.	.	.	.	.	.	.	12e/	.	12g/	.	.	.	.	.	.	.	.	.	.	.	.	.	.	.
.	.	.	.	.	.	.	.	.	12g/J	.	12b/J)	.	.	.	.	.	.	.	.	.	.	.	.	.	.	.
.	.	16B\Jk)	.	16B\	-ło	.	16G/	.	.	.	.	.	.	.	.	.	.	.	16b/Jk)	.	.	16g/	.	.	16bb\Jk)	.
2D/	.	(4B\	.	4B\	do-	.	(4G/	.	12r	.	12r	.	[2dd/)	2dd\	.	4F/)	2D\	.	(<4b/	.	.	(<4g/	.	.	(4bb\	.
.	.	.	.	.	.	.	.	.	12A/L	.	(12c/L	.	.	.	.	.	.	.	.	.	.	.	.	.	.	.
.	.	.	.	.	.	.	.	.	12d/J	.	12f/J	.	.	.	.	.	.	.	.	.	.	.	.	.	.	.
.	.	8A\)	.	8A\	-brze	.	8F/)	.	12f/L	.	12a/L	.	.	.	.	4r	.	.	8a/)	.	.	8f/)	.	.	8aa\)	.
.	.	.	.	.	.	.	.	.	12d/	.	12f/	.	.	.	.	.	.	.	.	.	.	.	.	.	.	.
.	.	8r	.	8r	.	.	8r	.	.	.	.	.	.	.	.	.	.	.	8r	.	.	8r	.	.	8r	.
.	.	.	.	.	.	.	.	.	12A/J	.	12d/J)	.	.	.	.	.	.	.	.	.	.	.	.	.	.	.
!!LO:PB:g=original
=17	=17	=17	=17	=17	=17	=17	=17	=17	=17	=17	=17	=17	=17	=17	=17	=17	=17	=17	=17	=17	=17	=17	=17	=17	=17	=17
2GG/	.	(4F\	.	4F\	czy-	.	4D/	.	12r	.	12r	.	(2dd/]	(2g\	.	(2B/	(>2D\	.	4f/	1r	.	4d/	1r	.	(4ff\	.
.	.	.	.	.	.	.	.	.	12B/L	.	(12d/L	.	.	.	.	.	.	.	.	.	.	.	.	.	.	.
.	.	.	.	.	.	.	.	.	12d/J	.	12f/J)	.	.	.	.	.	.	.	.	.	.	.	.	.	.	.
.	.	8.A\L	.	8.A\	-nić	.	8.F/L	.	(12f/L	.	(12a/L	.	.	.	.	.	.	.	8.a/L	.	.	8.f/L	.	.	8.aa\L	.
.	.	.	.	.	.	.	.	.	12d/)	.	12d/)	.	.	.	.	.	.	.	.	.	.	.	.	.	.	.
.	.	.	.	.	.	.	.	.	12B/J	.	12g/J	.	.	.	.	.	.	.	.	.	.	.	.	.	.	.
.	.	16G\Jk)	.	16G\	w u-	.	16E/Jk	.	.	.	.	.	.	.	.	.	.	.	16g/Jk	.	.	16e/Jk	.	.	16gg\Jk)	.
4C/	.	(4G\	.	4G\	-kry-	.	(4E/	.	12r	.	12r	.	4ee/)	4cc\)	.	4c/)	4C\)	.	(<4g/	.	.	4.e/	.	.	(4gg\	.
.	.	.	.	.	.	.	.	.	12e/L	.	12c/L	.	.	.	.	.	.	.	.	.	.	.	.	.	.	.
.	.	.	.	.	.	.	.	.	12c/J	.	12G/J	.	.	.	.	.	.	.	.	.	.	.	.	.	.	.
4r	.	8E\)	.	8E\	-ciu,	.	8C/)	.	(12G/L	.	(12e/L	.	4r	4ryy	.	4r	4ryy	.	8e/)	.	.	.	.	.	8ee\)	.
.	.	.	.	.	.	.	.	.	12c/)	.	12c/)	.	.	.	.	.	.	.	.	.	.	.	.	.	.	.
.	.	8r	.	8r	.	.	8r	.	.	.	.	.	.	.	.	.	.	.	8r	.	.	8r	.	.	8r	.
.	.	.	.	.	.	.	.	.	12e/J	.	12G/J	.	.	.	.	.	.	.	.	.	.	.	.	.	.	.
*	*	*	*	*	*	*	*	*	*	*	*	*	*	*	*	*v	*v	*	*	*	*	*	*	*	*	*
*	*	*	*	*	*	*	*	*	*	*	*	*	*	*	*	*	*	*v	*v	*	*	*	*	*	*
=18	=18	=18	=18	=18	=18	=18	=18	=18	=18	=18	=18	=18	=18	=18	=18	=18	=18	=18	=18	=18	=18	=18	=18	=18
*	*	*	*	*	*	*	*	*	*	*	*	*	*	*	*	*	*	*	*	*	*2\right	*	*	*
4C/	.	4C/	.	4E\	dob-	.	4E/	.	12r	.	12r	.	4ee/	4cc\	.	1r	.	1r	.	(4ee/	2.g\	.	1r	.
.	.	.	.	.	.	.	.	.	(12e/L	.	(12e/L	.	.	.	.	.	.	.	.	.	.	.	.	.
.	.	.	.	.	.	.	.	.	12G/J)	.	12G/J)	.	.	.	.	.	.	.	.	.	.	.	.	.
4BB/	.	4BB/	.	8.G\	-re-	.	4D/	.	12r	.	12r	.	4gg/	4dd\	.	.	.	.	.	4dd/	.	.	.	.
.	.	.	.	.	.	.	.	.	(12d/L	.	(12g/L	.	.	.	.	.	.	.	.	.	.	.	.	.
.	.	.	.	.	.	.	.	.	12G/J)	.	12G/J)	.	.	.	.	.	.	.	.	.	.	.	.	.
.	.	.	.	16D\	-go	.	.	.	.	.	.	.	.	.	.	.	.	.	.	.	.	.	.	.
4C/	.	4C/	.	4.E\	czy-	.	4E/	.	12r	.	12r	.	2ee/	4cc\	.	.	.	.	.	4ee/	.	.	.	.
.	.	.	.	.	.	.	.	.	(12c/L	.	(12e/L	.	.	.	.	.	.	.	.	.	.	.	.	.
.	.	.	.	.	.	.	.	.	12G/J)	.	12G/J)	.	.	.	.	.	.	.	.	.	.	.	.	.
4GG#X/	.	4GG#X/	.	.	.	.	4B/	.	12r	.	12r	.	.	[>4e\	.	.	.	.	.	4b/)	4ryy	.	.	.
.	.	.	.	.	.	.	.	.	12e/L	.	(12e/L	.	.	.	.	.	.	.	.	.	.	.	.	.
.	.	.	.	8D\	-nu	.	.	.	.	.	.	.	.	.	.	.	.	.	.	.	.	.	.	.
.	.	.	.	.	.	.	.	.	12B/J	.	12B/J)	.	.	.	.	.	.	.	.	.	.	.	.	.
=19	=19	=19	=19	=19	=19	=19	=19	=19	=19	=19	=19	=19	=19	=19	=19	=19	=19	=19	=19	=19	=19	=19	=19	=19
!	!	!	!	!	!	!	!	!	!	!	!	!	!	!	!LO:DY:a	!	!	!	!	!	!	!	!	!
(4AA/	.	(4AA/	.	8.C\L	ci-	.	(4c/	.	12r	.	12r	.	8.cc/L	4e\]	pp	1r	.	1r	.	8.cc/L	8.a\L	pp	1r	.
.	.	.	.	.	.	.	.	.	12A/L	.	12c/L	.	.	.	.	.	.	.	.	.	.	.	.	.
.	.	.	.	.	.	.	.	.	12B/J	.	12d/J	.	.	.	.	.	.	.	.	.	.	.	.	.
.	.	.	.	16D\Jk	.	.	.	.	.	.	.	.	16dd/K	.	.	.	.	.	.	16dd/K	16b\K	.	.	.
8.GG/L)	.	8.GG/L)	.	8.E\	-che	.	8.B/L)	.	12r	.	12r	.	8.ee/	8.cc\L	.	.	.	.	.	8.ee/	8.cc\	.	.	.
.	.	.	.	.	.	.	.	.	12c/L	.	12e/L	.	.	.	.	.	.	.	.	.	.	.	.	.
.	.	.	.	.	.	.	.	.	12d/J	.	12f/J	.	.	.	.	.	.	.	.	.	.	.	.	.
16FF/Jk	.	16FF/Jk	.	16F\	wspo-	.	16A/Jk	.	.	.	.	.	16ff/Jk	16dd\Jk	.	.	.	.	.	16ff/Jk	16dd\Jk	.	.	.
4.GG/	.	4.GG/	.	4E\	-mnie-	.	4G/	.	(12c/L	.	(12e/L	.	(4ee/	(>4cc\	.	.	.	.	.	(4ee/	(>4cc\	.	.	.
.	.	.	.	.	.	.	.	.	12G/)	.	12c/)	.	.	.	.	.	.	.	.	.	.	.	.	.
.	.	.	.	.	.	.	.	.	12c/J	.	12e/J	.	.	.	.	.	.	.	.	.	.	.	.	.
.	.	.	.	8D\	-nie	.	4ryy	.	(12B/L	.	(12d/L	.	8dd/)	8b\)	.	.	.	.	.	8dd/)	8b\)	.	.	.
.	.	.	.	.	.	.	.	.	12G/)	.	12G/)	.	.	.	.	.	.	.	.	.	.	.	.	.
8r	.	8r	.	8r	.	.	.	.	.	.	.	.	8r	8r	.	.	.	.	.	8r	8ryy	.	.	.
.	.	.	.	.	.	.	.	.	12g/J	.	12g/J	.	.	.	.	.	.	.	.	.	.	.	.	.
=20	=20	=20	=20	=20	=20	=20	=20	=20	=20	=20	=20	=20	=20	=20	=20	=20	=20	=20	=20	=20	=20	=20	=20	=20
*	*	*	*	*	*	*	*	*	*	*	*	*	*	*	*	*^	*	*	*	*	*	*	*	*
1C	mf	(4G\	mf	4G\	nie-	.	1C	.	12r	mf	12r	mf	1cc	1c	mf	2G/	2E\	mf	4g/	mf	2ee/	2g\	mf	(4gg\	mf
.	.	.	.	.	.	.	.	.	12e/L	.	12g\L	.	.	.	.	.	.	.	.	.	.	.	.	.	.
.	.	.	.	.	.	.	.	.	12cc/J	.	12cc\J	.	.	.	.	.	.	.	.	.	.	.	.	.	.
.	.	8.e\L	.	8.e\	-je-	.	.	.	(12g/L	.	(12ee\L	.	.	.	.	.	.	.	8.ee/L	.	.	.	.	8.eee\L	.
.	.	.	.	.	.	.	.	.	12e/)	.	12g\)	.	.	.	.	.	.	.	.	.	.	.	.	.	.
.	.	.	.	.	.	.	.	.	12c/J	.	12cc\J	.	.	.	.	.	.	.	.	.	.	.	.	.	.
!	!	!LO:N:vis=8	!	!	!	!	!	!	!	!	!	!	!	!	!	!	!	!	!	!	!	!	!	!	!
.	.	16c\Jk)	.	16c\	-dną	.	.	.	.	.	.	.	.	.	.	.	.	.	16cc/Jk	.	.	.	.	16ccc\Jk	.
!	!	!	!	!	!	!	!	!	!	!	!	!	!	!	!	!	!	!	!	!	!LO:TX:t=P:problem=brak początków ligatur	!	!	!	!
.	.	(4B\	.	4B\	tro-	.	.	.	12r	.	12r	.	.	.	.	2A/	2F\	.	(4b/	.	[2dd/	[2f\	.	4bb\	.
.	.	.	.	.	.	.	.	.	12d/L	.	12f\L	.	.	.	.	.	.	.	.	.	.	.	.	.	.
.	.	.	.	.	.	.	.	.	12a/J	.	12a\J	.	.	.	.	.	.	.	.	.	.	.	.	.	.
.	.	8A\)	.	8A\	-skę	.	.	.	(12f/L	.	(12dd\L	.	.	.	.	.	.	.	8a/)	.	.	.	.	8aa\)	.
.	.	.	.	.	.	.	.	.	12d/)	.	12a\)	.	.	.	.	.	.	.	.	.	.	.	.	.	.
.	.	8ryy	.	8r	.	.	.	.	.	.	.	.	.	.	.	.	.	.	8r	.	.	.	.	8r	.
.	.	.	.	.	.	.	.	.	12A/J	.	12f\J	.	.	.	.	.	.	.	.	.	.	.	.	.	.
*	*	*	*	*	*	*	*	*	*	*	*	*	*	*	*	*	*	*	*	*	*v	*v	*	*	*
!!LO:PB:g=original
=21	=21	=21	=21	=21	=21	=21	=21	=21	=21	=21	=21	=21	=21	=21	=21	=21	=21	=21	=21	=21	=21	=21	=21	=21
2.C/	.	(4F\	.	4F\	ła-	.	2.C/	.	12r	.	12r	.	2dd/	2.c\	.	2B/	2F\	.	(4f/	.	2dd] 2f/]	.	(4ff\	.
.	.	.	.	.	.	.	.	.	12B/L	.	12d/L	.	.	.	.	.	.	.	.	.	.	.	.	.
.	.	.	.	.	.	.	.	.	12d/J	.	12g/J	.	.	.	.	.	.	.	.	.	.	.	.	.
.	.	8.B\L	.	8.B\	-go-	.	.	.	(12g/L	.	(12b/L	.	.	.	.	.	.	.	8.b/L	.	.	.	8.bb\L	.
.	.	.	.	.	.	.	.	.	12d/)	.	12d/)	.	.	.	.	.	.	.	.	.	.	.	.	.
.	.	.	.	.	.	.	.	.	12f/J	.	12a/J	.	.	.	.	.	.	.	.	.	.	.	.	.
.	.	16A\Jk)	.	16A\	-dzi	.	.	.	.	.	.	.	.	.	.	.	.	.	16a/Jk)	.	.	.	16aa\Jk)	.
.	.	(4A\	.	4A\	w ży-	.	.	.	12r	.	12r	.	4ee/	.	.	4c/	4E\	.	(4a/	.	4cc 4e/	.	(4aa\	.
.	.	.	.	.	.	.	.	.	12e/L	.	12c/L	.	.	.	.	.	.	.	.	.	.	.	.	.
.	.	.	.	.	.	.	.	.	12c/J	.	12e/J	.	.	.	.	.	.	.	.	.	.	.	.	.
4r	.	8G\)	.	8G\	-ciu	.	8e 8c\	.	(12G/L	.	(12g/L	.	4r	4ryy	.	4r	4ryy	.	8g/)	.	4r	.	8gg\)	.
.	.	.	.	.	.	.	.	.	12c/)	.	12e/)	.	.	.	.	.	.	.	.	.	.	.	.	.
.	.	8r	.	8r	.	.	8r	.	.	.	.	.	.	.	.	.	.	.	8r	.	.	.	8r	.
.	.	.	.	.	.	.	.	.	12e/J	.	12c/J	.	.	.	.	.	.	.	.	.	.	.	.	.
*	*	*	*	*	*	*	*	*	*	*	*	*	*v	*v	*	*	*	*	*	*	*	*	*	*
=22	=22	=22	=22	=22	=22	=22	=22	=22	=22	=22	=22	=22	=22	=22	=22	=22	=22	=22	=22	=22	=22	=22	=22
*	*	*	*	*	*	*	*tremolo	*	*tremolo	*	*tremolo	*	*	*	*	*	*	*	*	*	*	*	*
*2\right	*	*	*	*	*	*	*tuplet	*	*tuplet	*	*tuplet	*	*	*	*	*	*	*	*	*	*	*	*
!	!	!	!	!	!	!	!LO:TX:t=P:problem=złe wyświetlanie wartości rytmicznej tremolo w tym głosie	!	!LO:TX:t=P:problem=złe wyświetlanie wartości rytmicznej tremolo w tym głosie	!	!LO:TX:t=P:problem=złe wyświetlanie wartości rytmicznej tremolo w tym głosie	!	!	!	!	!	!	!	!	!	!	!	!
!	!	!	!	!	!	!LO:N:TREM:vis=2.	!	!	!LO:N:TREM:vis=2.	!	!LO:N:TREM:vis=4.	!	!	!	!	!	!	!	!	!LO:TX:a:i:t=accelerando.	!	!	!
(2B-X\	sf	(2B-X\	sf	4G\	nie-	.	12G/L	.	12c/L	.	12e/L	.	2cc 2c/	.	(2B-X (2BB-X\	2ryy	.	1r	.	(>2e/	.	1r	.
.	.	.	.	.	.	.	12G/	.	12c/	.	12e/	.	.	.	.	.	.	.	.	.	.	.	.
.	.	.	.	.	.	.	12G/	.	12c/	.	12e/J	.	.	.	.	.	.	.	.	.	.	.	.
*	*	*	*	*	*	*	*	*	*	*	*Xtuplet	*	*	*	*	*	*	*	*	*	*	*	*
.	.	.	.	8F\	-je-	.	12G/	.	12c/	.	12e/L	.	.	.	.	.	.	.	.	.	.	.	.
.	.	.	.	.	.	.	12G/	.	12c/	.	12e/	.	.	.	.	.	.	.	.	.	.	.	.
!	!	!LO:TX:b:i:t=accelerando.	!	!	!	!	!	!	!	!	!	!	!	!	!	!	!	!	!	!	!	!	!
.	.	.	.	8E\	-dno	.	.	.	.	.	.	.	.	.	.	.	.	.	.	.	.	.	.
.	.	.	.	.	.	.	12G/J	.	12c/J	.	12e/J	.	.	.	.	.	.	.	.	.	.	.	.
*	*	*	*	*	*	*	*Xtuplet	*	*Xtuplet	*	*	*	*	*	*	*	*	*	*	*	*	*	*
!	!	!	!	!	!	!	!LO:N:TREM:vis=4.	!	!LO:TX:b:i:t=accelerando	!	!LO:TX:b:i:t=accelerando	!	!LO:TX:a:i:t=accelerando.	!	!	!	!	!	!	!	!	!	!
4A\)	.	4A\)	.	4F\	ser-	.	12F/L	.	12c/L	.	12f/L	.	4cc 4c/	.	4A 4AA/))	4ryy	.	.	.	4f/	.	.	.
.	.	.	.	.	.	.	12F/	.	12c/	.	12f/	.	.	.	.	.	.	.	.	.	.	.	.
.	.	.	.	.	.	.	12F/J	.	12c/	.	12f/J	.	.	.	.	.	.	.	.	.	.	.	.
4D#X\	.	4D#X\	.	4F#X\	-ca	.	12F#X/L	.	12c/	.	12f#X/L	.	4cc 4c/	.	4D#X/	4r	.	.	.	4f#X/	.	.	.
.	.	.	.	.	.	.	12F#/	.	12c/	.	12f#/	.	.	.	.	.	.	.	.	.	.	.	.
.	.	.	.	.	.	.	12F#/J	.	12c/J	.	12f#/J	.	.	.	.	.	.	.	.	.	.	.	.
=23	=23	=23	=23	=23	=23	=23	=23	=23	=23	=23	=23	=23	=23	=23	=23	=23	=23	=23	=23	=23	=23	=23	=23
!	!	!	!	!	!	!	!	!	!	!	!	!	!	!	!	!	!LO:HP:a	!	!	!	!	!	!
4E\	<	4E\	<	4G\	go-	.	12G/L	<	12c/L	<	12g/L	<	4cc 4c/	.	2E/	1r	<	1r	.	4g/	.	1r	.
.	.	.	.	.	.	.	12G/	.	12c/	.	12g/	.	.	.	.	.	.	.	.	.	.	.	.
.	.	.	.	.	.	.	12G/J	.	12c/	.	12g/J	.	.	.	.	.	.	.	.	.	.	.	.
4E\	.	4E\	.	8G#X\	-i	.	12G#X/L	.	12c/	.	12g#X/L	.	4cc 4c/	.	.	.	.	.	.	4g#X/	.	.	.
.	.	.	.	.	.	.	12G#/	.	12c/	.	12g#/	.	.	.	.	.	.	.	.	.	.	.	.
.	.	.	.	8G#\	cier-	.	.	.	.	.	.	.	.	.	.	.	.	.	.	.	.	.	.
.	.	.	.	.	.	.	12G#/J	.	12c/J	.	12g#/J	.	.	.	.	.	.	.	.	.	.	.	.
*	*	*	*	*	*	*	*Xtremolo	*	*	*	*	*	*	*	*	*	*	*	*	*	*	*	*
!	!	!	!	!	!	!	!LO:TX:t=P:problem=mixed beam	!	!	!	!	!	!	!LO:HP:a	!	!	!	!	!	!	!	!	!
4.F\	.	4.F\	.	4A\	-pie-	.	12A/L	.	12c/L	.	12a/L	.	12ccL 12c/	<	2F/	.	.	.	.	8a/)	.	.	.
.	.	.	.	.	.	.	12f\	.	12c/	.	12a/	.	12cc 12c/	.	.	.	[	.	.	.	.	.	.
.	.	.	.	.	.	.	.	.	.	.	.	.	.	.	.	.	.	.	.	8r	.	.	.
.	.	.	.	.	.	.	12f\J	.	12c/	.	12a/J	.	12ccJ 12c/	.	.	.	.	.	.	.	.	.	.
*	*	*	*	*	*	*	*tremolo	*	*	*	*Xtremolo	*	*tremolo	*	*	*	*	*	*	*	*	*	*
.	.	.	.	8G#X\	-nie,	.	12f\L	.	12c/	[	12g#X/L	.	12ccL 12c/	.	.	.	.	.	.	4r	.	.	.
.	.	.	.	.	.	.	12f\	.	12c/	.	12g#/	[	12cc 12c/	.	.	.	.	.	.	.	.	.	.
8F\	[	8F\	[	8A\	nie-	.	.	.	.	.	.	.	.	.	.	.	.	.	.	.	.	.	.
.	.	.	.	.	.	.	12f\J	[[	12c/J	.	12a/J	.	12ccJ 12c/	[[	.	.	.	.	.	.	.	.	.
*	*	*	*	*	*	*	*	*	*	*	*	*	*Xtremolo	*	*	*	*	*	*	*	*	*	*
=24	=24	=24	=24	=24	=24	=24	=24	=24	=24	=24	=24	=24	=24	=24	=24	=24	=24	=24	=24	=24	=24	=24	=24
*	*	*	*	*	*	*	*	*	*	*	*	*	*^	*	*	*	*	*^	*	*^	*	*	*
*	*	*tremolo	*	*	*	*	*2\right	*	*	*	*tremolo	*	*	*	*	*	*	*	*	*	*	*	*	*	*	*
!	!	!LO:TUP:a	!	!	!	!	!	!	!	!	!	!	!	!	!	!	!	!LO:DY:t=f.	!	!	!	!	!	!LO:DY:rj	!LO:TX:b:i:t=molto ritard.	!LO:DY:rj
2F#X\	f	12F#X\L	f	(4d\	-je-	.	12a\L	f	12dL 12c/	f	12dd\L	f	2cc/	2c\	f	2F#X/	2F#\	f	(4dd/	4..a\	f	2cc/	2a\	f	(4ddd\	f
!	!	!	!	!	!	!	!	!	!	!	!LO:TX:b:i:t=molto ritard&colon;	!	!	!	!	!	!	!	!	!LO:TX:b:i:t=molto ritard.	!	!	!	!	!	!
.	>	12F#\	>	.	.	.	12a\	>	12d 12c/	>	12dd\	.	.	.	>	.	.	>	.	.	.	.	.	.	.	.
.	.	12F#\	.	.	.	.	12a\	.	12d 12c/	.	12dd\J	.	.	.	.	.	.	.	.	.	.	.	.	>	.	.
*	*	*	*	*	*	*	*	*	*	*	*Xtremolo	*	*	*	*	*	*	*	*	*	*	*	*	*	*	*
!	!	!	!	!LO:TX:a:t=molto ritard	!	!	!	!	!	!	!	!	!	!	!	!	!	!	!	!	!	!	!	!	!	!
.	.	12F#\	.	8.c\)	.	.	12a\	.	12d 12c/	.	12cc\L	.	.	.	.	.	.	.	8.cc/L	.	.	.	.	.	8.ccc\L	.
.	.	12F#\	.	.	.	.	12a\	.	12d 12c/	.	12cc\	.	.	.	.	.	.	.	.	.	.	.	.	.	.	.
.	.	12F#\J	.	.	.	.	12a\J	.	12dJ 12c/	.	12a\J	.	.	.	.	.	.	.	.	.	.	.	.	.	.	.
.	.	.	.	16A\	-dno	.	.	.	.	.	.	.	.	.	.	.	.	.	16a/Jk)	16d\	.	.	.	.	16aa\Jk)	.
*	*	*Xtremolo	*	*	*	*	*Xtremolo	*	*	*	*tremolo	*	*	*	*	*	*	*	*	*	*	*	*	*	*	*
!	!	!	!	!	!	!	!LO:TX:t=P:problem=mixed beam	!	!	!	!	!	!	!	!	!	!	!	!	!	!	!	!	!	!	!
4G\	.	4G\	.	4G\	ser-	.	12g\L	.	12eL 12c/	.	12g/L	.	4ee/	4cc\	.	4G/	4G\	.	4g/	4e\	.	4cc 4e/	2ryy	.	4gg\	.
.	.	.	.	.	.	.	12G/	.	12e 12c/	.	12g/	.	.	.	.	.	.	.	.	.	.	.	.	.	.	.
.	.	.	.	.	.	.	12G/J	.	12eJ 12c/	.	12g/J	.	.	.	.	.	.	.	.	.	.	.	.	.	.	.
*	*	*	*	*	*	*	*tremolo	*	*	*	*	*	*	*	*	*	*	*	*	*	*	*	*	*	*	*
4G\	.	4G\	]	4G\	-ca	.	12G/L	]	12e-XL 12c/	]	12g/L	.	4ee-X/	4cc\	.	4G/	4G\	]	4g/	4e-X\	.	4cc 4e-X/	.	]	4gg\	.
.	]	.	.	.	.	.	12G/	.	12e- 12c/	.	12g/	.	.	.	.	.	.	.	.	.	.	.	.	.	.	.
.	.	.	.	.	.	.	12G/J	.	12e-J 12c/	.	12g/J	.	.	.	]	.	.	.	.	.	.	.	.	.	.	.
*	*	*	*	*	*	*	*Xtremolo	*	*Xtremolo	*	*Xtremolo	*	*	*	*	*	*	*	*	*	*	*	*	*	*	*
*	*	*	*	*	*	*	*	*	*	*	*	*	*	*	*	*v	*v	*	*	*	*	*v	*v	*	*	*
*	*	*	*	*	*	*	*	*	*	*	*	*	*	*	*	*	*	*v	*v	*	*	*	*	*
!!LO:PB:g=original
=25	=25	=25	=25	=25	=25	=25	=25	=25	=25	=25	=25	=25	=25	=25	=25	=25	=25	=25	=25	=25	=25	=25	=25
!	!	!	!	!	!	!	!	!	!	!	!	!	!	!	!	!LO:TX:a:i:t=colla parte.	!	!	!	!	!	!	!
4G\	.	4G\	.	(4G\	go-	.	4B/	.	4d 4G/	.	4f 4G/	.	4dd/	4g\	.	(1B (>1G	.	(1f (>1d	.	4b 4d/	.	4b\	.
4r	.	4r	.	4G#X\)	.	.	4r	.	4r	.	4r	.	4r	4ryy	.	.	.	.	.	4r	.	4r	.
2r	.	2r	.	4.A\	-i	.	2r	.	2r	.	4r	.	2r	2ryy	.	.	.	.	.	2r	.	2r	.
.	.	.	.	.	.	.	.	.	.	.	8r	.	.	.	.	.	.	.	.	.	.	.	.
.	.	.	.	8BB/	cier-	.	.	p	.	p	8g/	p	.	.	.	.	.	.	.	.	.	.	.
*	*	*	*	*	*	*	*	*	*	*	*	*	*v	*v	*	*	*	*	*	*	*	*	*
=26	=26	=26	=26	=26	=26	=26	=26	=26	=26	=26	=26	=26	=26	=26	=26	=26	=26	=26	=26	=26	=26	=26
!	!	!	!	!LO:TX:a:i:t=tempo I&colon;	!	!	!	!	!	!	!LO:TX:a:i:t=tempo 1mo	!	!	!	!	!	!LO:TX:a:i:t=a tempo.	!	!	!	!	!
4C/	.	4C/	.	4C/	-pie-	.	[1c	.	2e/	.	(4g/	.	1r	.	4c) 4C\)	.	4e) 4c/)	.	1r	.	1r	.
4r	.	4r	.	4C/	-nie.	.	.	.	.	.	8.cc/L	.	.	.	4r	.	4r	.	.	.	.	.
.	.	.	.	.	.	.	.	.	.	.	16b/Jk	.	.	.	.	.	.	.	.	.	.	.
2r	.	2r	.	2r	.	.	.	.	4f/	.	4a/)	.	.	.	2r	.	2r	.	.	.	.	.
.	.	.	.	.	.	.	.	.	4e/	.	4g/	.	.	.	.	.	.	.	.	.	.	.
=27	=27	=27	=27	=27	=27	=27	=27	=27	=27	=27	=27	=27	=27	=27	=27	=27	=27	=27	=27	=27	=27	=27
2r	.	8r	.	1r	.	.	8c\]	.	(2d#X/	.	(2f#X/	.	1r	.	1r	.	1r	.	1r	.	1r	.
.	.	(8c\L	>	.	.	.	8r	.	.	.	.	.	.	.	.	.	.	.	.	.	.	.
.	.	8B\	.	.	.	.	4r	.	.	.	.	.	.	.	.	.	.	.	.	.	.	.
.	.	8c\J)	]	.	.	.	.	.	.	.	.	.	.	.	.	.	.	.	.	.	.	.
8r	.	8C'/L	.	.	.	.	4r	.	8e/L)	.	(8g/L)	.	.	.	.	.	.	.	.	.	.	.
(8G#X\L	.	(8GG#X/	.	.	.	.	.	.	8dn/	.	8fn/	.	.	.	.	.	.	.	.	.	.	.
8A\	.	8AA/	.	.	.	.	8e\L	.	8c#X/	.	8e/)	.	.	.	.	.	.	.	.	.	.	.
8F#X\J)	.	8FF#X/J)	.	.	.	.	8e-X\J	.	([8cn/J	.	8a/J	.	.	.	.	.	.	.	.	.	.	.
=28	=28	=28	=28	=28	=28	=28	=28	=28	=28	=28	=28	=28	=28	=28	=28	=28	=28	=28	=28	=28	=28	=28
[2G\	.	[2GG/	.	1r	.	.	(4d\	.	4c/]	.	(4.d/	.	1r	.	1r	.	1r	.	1r	.	1r	.
.	.	.	.	.	.	.	4.G/)	.	8B/L	.	.	.	.	.	.	.	.	.	.	.	.	.
.	.	.	.	.	.	.	.	.	8c/J)	.	8e/)	.	.	.	.	.	.	.	.	.	.	.
!LO:TX:t=P:problem=mixed beam	!	!	!	!	!	!	!	!	!	!	!	!	!	!	!	!	!	!	!	!	!	!
8G\L]	.	8GG/L]	.	.	.	.	.	.	4d/	.	4f/	.	.	.	.	.	.	.	.	.	.	.
8GGn/|	.	8GG/|	.	.	.	.	8B/L|	.	.	.	.	.	.	.	.	.	.	.	.	.	.	.
8AA/|	.	8AA/|	.	.	.	.	8A/|	.	4d/	.	4f/	.	.	.	.	.	.	.	.	.	.	.
8BB/J|	.	8BB/J|	.	.	.	.	8G/J|	.	.	.	.	.	.	.	.	.	.	.	.	.	.	.
=29	=29	=29	=29	=29	=29	=29	=29	=29	=29	=29	=29	=29	=29	=29	=29	=29	=29	=29	=29	=29	=29	=29
!!LO:TX:a:t=1.
*>B1	*>B1	*>B1	*>B1	*>B1	*>B1	*>B1	*>B1	*>B1	*>B1	*>B1	*>B1	*>B1	*>B1	*>B1	*>B1	*>B1	*>B1	*>B1	*>B1	*>B1	*>B1	*>B1
8C/	.	8C/	.	1r	.	.	4r	.	4r	.	12r	.	1r	.	1r	.	1r	.	1r	.	1r	.
.	.	.	.	.	.	.	.	.	.	.	12G/L	.	.	.	.	.	.	.	.	.	.	.
8r	.	8r	.	.	.	.	.	.	.	.	.	.	.	.	.	.	.	.	.	.	.	.
.	.	.	.	.	.	.	.	.	.	.	12c/J	.	.	.	.	.	.	.	.	.	.	.
4r	.	4r	.	.	.	.	4c\	.	4e 4G/	.	(12e/L	.	.	.	.	.	.	.	.	.	.	.
.	.	.	.	.	.	.	.	.	.	.	12c/)	.	.	.	.	.	.	.	.	.	.	.
.	.	.	.	.	.	.	.	.	.	.	12G/J	.	.	.	.	.	.	.	.	.	.	.
8C/	.	8C/	.	.	.	.	4r	.	4r	.	12r	.	.	.	.	.	.	.	.	.	.	.
.	.	.	.	.	.	.	.	.	.	.	12G/L	.	.	.	.	.	.	.	.	.	.	.
8r	.	8r	.	.	.	.	.	.	.	.	.	.	.	.	.	.	.	.	.	.	.	.
.	.	.	.	.	.	.	.	.	.	.	12c/J	.	.	.	.	.	.	.	.	.	.	.
4r	.	4r	.	.	.	.	4c\	.	4e-X 4G/	.	(12e-X/L	.	.	.	.	.	.	.	.	.	.	.
.	.	.	.	.	.	.	.	.	.	.	12c/)	.	.	.	.	.	.	.	.	.	.	.
.	.	.	.	.	.	.	.	.	.	.	12G/J	.	.	.	.	.	.	.	.	.	.	.
=30:|!	=30:|!	=30:|!	=30:|!	=30:|!	=30:|!	=30:|!	=30:|!	=30:|!	=30:|!	=30:|!	=30:|!	=30:|!	=30:|!	=30:|!	=30:|!	=30:|!	=30:|!	=30:|!	=30:|!	=30:|!	=30:|!	=30:|!
!!LO:TX:a:t=2:color=red
*>B2	*>B2	*>B2	*>B2	*>B2	*>B2	*>B2	*>B2	*>B2	*>B2	*>B2	*>B2	*>B2	*>B2	*>B2	*>B2	*>B2	*>B2	*>B2	*>B2	*>B2	*>B2	*>B2
!	!	!	!	!	!	!	!	!	!	!	!	!	!	!	!	!	!	!	!	!	!LO:TX:a:t=2.	!
(2C/	.	(2C/	.	1r	.	.	(2G/	.	(2c/	.	(2e'/	.	1r	.	1r	.	1r	.	1r	.	1r	.
4C'/	.	4C'/	.	.	.	.	4G'/	.	4c'/	.	4e'/	.	.	.	.	.	.	.	.	.	.	.
4C'/	.	4C'/	.	.	.	.	4G'/	.	4c'/	.	4e'/	.	.	.	.	.	.	.	.	.	.	.
=31	=31	=31	=31	=31	=31	=31	=31	=31	=31	=31	=31	=31	=31	=31	=31	=31	=31	=31	=31	=31	=31	=31
!	!	!	!	!	!	!	!	!	!	!	!LO:TX:b:Bi:t=Attacca	!	!	!	!	!	!	!	!	!	!	!
1C;)	.	1C;)	.	1r;	.	.	1G;)	.	1c;)	.	1e;)	.	1r;	.	1r;	.	1r;	.	1r;	.	1r;	.
==	==	==	==	==	==	==	==	==	==	==	==	==	==	==	==	==	==	==	==	==	==	==
*-	*-	*-	*-	*-	*-	*-	*-	*-	*-	*-	*-	*-	*-	*-	*-	*-	*-	*-	*-	*-	*-	*-
!!!system-decoration: [(s1,s2,s3,s4,s5{s6,s7,s8}{s9}s10,s11)]
!!!RDF**kern: > = above
!!!RDF**kern: < = below
!!!RDF**kern: | = vertical stroke
!!!RDF**dynam: p = "p."
!!!RDF**dynam: pp = "pp."
!!!RDF**dynam: ppp = "ppp."
!!!ENC: Katarzyna Serwa
!!!END: 2021-09-05
!!!ENC: Marta Lawrence
!!!END: 2021-09-30
